X: 51
M: 2/4
L: 1/8
K: Em
E/ G/ | G2 A> B | g2 (f>g) | e2 E> F |
c2 (B>c) | A2 B ^d | e2 E> c | (BA) (GF) |
e2 E> c | (BA) (GF) | E3 |]
K:

